X:40
T: The Gold Rush
C: Bill Monroe- David Peters Solo
S: MandoZine TablEdit Archives
S: GoldRush-A-Peters.tef
Z: Tabledited by Kim Davis with Special thanks to Kristi Sberna
L: 1/8
Q: 460
M: 4/4
K: A
 AF EF AB cd |: [e2A2] ef ed cd | e2 A4 e=g | (3f=gf ed cB AF | E3F ED CB, | A,B, CD EF AB |
 ce zf e2 AB | cB Ac BA FE |1 AF EF AB cd :|2 A6 cB | AF ED CB, A,2 | [FD][FD] z2 [E2C2] CB, |
 A,B, CE FG AB | c2 e4 cB | AF ED CB, A,2 | DF zD [E2C2] AB | cB Ac BA GE | A2 A4 af |
 ed cB AB ce | de fd ed cB | AF EF AB cd | e2 e4 af | ed cB AB ce | de fd e2 AB |
 cB Ac BA FE | A2 A6 |
